assets/img/braze_icons/dataflow-03.svg

<svg fill="none" height="24" viewBox="0 0 24 24" width="24" xmlns="http://www.w3.org/2000/svg"><g clip-rule="evenodd" fill="#801ed7" fill-rule="evenodd"><path d="m19.5322 5.52394c-.2834-.02315-.6556-.02393-1.2322-.02393h-7.3c-.5523 0-1-.44771-1-1 0-.55228.4477-1 1-1h7.3386c.5271-.00002.9819-.00003 1.3564.03057.3954.0323.7886.10362 1.167.29641.5645.28762 1.0234.74657 1.311 1.31105.1928.37838.2641.7716.2964 1.16694.0306.37457.0306.82933.0306 1.35647v1.37055c0 .43865 0 .81714-.0213 1.1304-.0225.3298-.072.6597-.207.9857-.3045.735-.8886 1.3191-1.6236 1.6236-.326.135-.6559.1845-.9857.207-.3133.0213-.6918.0213-1.1304.0213h-.032c-.5523 0-1-.4477-1-1s.4477-1 1-1c.4796 0 .7893-.0005 1.0263-.0167.2279-.0156.3148-.0422.3564-.0594.245-.1015.4397-.2962.5412-.5412.0172-.0416.0438-.1284.0594-.3564.0162-.23703.0167-.54666.0167-1.02629v-1.3c0-.57655-.0008-.94882-.0239-1.23216-.0222-.27167-.0599-.37238-.0851-.42183-.0959-.18816-.2488-.34114-.437-.43701-.0494-.0252-.1502-.06288-.4218-.08507zm-14.06418 5.47606h.03199c.55229 0 1 .4477 1 1s-.44771 1-1 1c-.47962 0-.78926.0006-1.02624.0167-.228.0156-.31483.0422-.35644.0594-.24503.1015-.4397.2962-.5412.5412-.01723.0416-.04385.1285-.05941.3565-.01617.237-.01671.5466-.01671 1.0262v1.3c0 .5766.00078.9488.02393 1.2322.02219.2716.05987.3724.08507.4218.09587.1882.24885.3411.43701.437.04945.0252.15016.0629.42183.0851.28334.0231.65561.0239 1.23216.0239h7.29999c.5523 0 1 .4477 1 1s-.4477 1-1 1h-7.33855c-.52714 0-.9819 0-1.35647-.0306-.39534-.0323-.78856-.1036-1.16694-.2964-.56449-.2876-1.02343-.7465-1.31105-1.311-.19279-.3784-.26411-.7716-.29641-1.167-.0306-.3745-.03059-.8293-.03057-1.3564v-1.3706c-.00001-.4386-.00002-.8171.02135-1.1304.02251-.3298.07201-.6597.20701-.9856.30449-.7351.88851-1.3191 1.62359-1.6236.32593-.135.65584-.1845.98567-.207.31326-.0214.69174-.0214 1.13039-.0214z"/><path d="m10.2769 8.50001h.0231 3.4.0232c.1191-.00005.2613-.0001.3866.01014.1453.01186.3533.0423.5712.15335.2822.14381.5117.37328.6555.65553.1111.21794.1415.42593.1534.57115.0102.12532.0102.26762.0101.38672v.0231 3.4.0232c.0001.1191.0001.2613-.0101.3866-.0119.1453-.0423.3533-.1534.5712-.1438.2822-.3733.5117-.6555.6555-.2179.1111-.4259.1415-.5712.1534-.1253.0102-.2675.0102-.3866.0101-.0079 0-.0156 0-.0232 0h-3.4c-.0076 0-.0153 0-.0231 0-.1191.0001-.2614.0001-.38672-.0101-.14522-.0119-.35321-.0423-.57115-.1534-.28225-.1438-.51172-.3733-.65553-.6555-.11105-.2179-.14149-.4259-.15335-.5712-.01024-.1253-.01019-.2675-.01014-.3866 0-.0079 0-.0156 0-.0232v-3.4c0-.0076 0-.0153 0-.0231-.00005-.1191-.0001-.2614.01014-.38672.01186-.14522.0423-.35321.15335-.57115.14381-.28225.37328-.51172.65553-.65553.21794-.11105.42593-.14149.57115-.15335.12532-.01024.26762-.01019.38672-.01014z"/><path d="m17.7769 16h.0231 3.4.0232c.1191 0 .2613-.0001.3866.0101.1453.0119.3533.0424.5712.1534.2822.1438.5117.3733.6555.6555.1111.218.1415.426.1534.5712.0102.1253.0102.2676.0101.3867v.0231 3.4.0232c.0001.1191.0001.2613-.0101.3866-.0119.1453-.0423.3533-.1534.5712-.1438.2822-.3733.5117-.6555.6555-.2179.1111-.4259.1415-.5712.1534-.1253.0102-.2675.0102-.3866.0101-.0079 0-.0156 0-.0232 0h-3.4c-.0076 0-.0153 0-.0231 0-.1191.0001-.2614.0001-.3867-.0101-.1452-.0119-.3532-.0423-.5712-.1534-.2822-.1438-.5117-.3733-.6555-.6555-.111-.2179-.1415-.4259-.1534-.5712-.0102-.1253-.0101-.2675-.0101-.3866 0-.0079 0-.0156 0-.0232v-3.4c0-.0076 0-.0153 0-.0231 0-.1191-.0001-.2614.0101-.3867.0119-.1452.0424-.3532.1534-.5712.1438-.2822.3733-.5117.6555-.6555.218-.111.426-.1415.5712-.1534.1253-.0102.2676-.0101.3867-.0101z"/><path d="m2.77687 1.00001h.02314 3.4.02314c.11912-.000049.26137-.000104.38669.01014.14522.01186.35321.0423.57116.15335.28224.14381.51171.37328.65552.65553.11105.21794.14149.42593.15336.57115.01024.12532.01018.26758.01014.38669-.00001.00782-.00001.01554-.00001.02314v3.4c0 .00761 0 .01532.00001.02314.00004.11912.0001.26137-.01014.38669-.01187.14522-.04231.35321-.15336.57116-.14381.28224-.37328.51171-.65552.65552-.21795.11105-.42594.14149-.57116.15336-.12532.01024-.26757.01018-.38669.01014-.00782-.00001-.01553-.00001-.02314-.00001h-3.4c-.0076 0-.01532 0-.02314.00001-.11911.00004-.26137.0001-.38669-.01014-.14522-.01187-.35321-.04231-.57115-.15336-.28225-.14381-.51172-.37328-.65553-.65552-.11105-.21795-.14149-.42594-.15335-.57116-.010244-.12532-.010189-.26757-.01014-.38669 0-.00782 0-.01553 0-.02314v-3.4c0-.0076 0-.01532 0-.02314-.000049-.11911-.000104-.26137.01014-.38669.01186-.14522.0423-.35321.15335-.57115.14381-.28225.37328-.51172.65553-.65553.21794-.11105.42593-.14149.57115-.15335.12532-.010244.26758-.010189.38669-.01014z"/></g></svg>

<svg width="24" height="24" viewBox="0 0 24 24" fill="none" xmlns="http://www.w3.org/2000/svg">
<path fill-rule="evenodd" clip-rule="evenodd" d="M19.5322 5.52394C19.2488 5.50079 18.8766 5.50001 18.3 5.50001H11C10.4477 5.50001 10 5.0523 10 4.50001C10 3.94773 10.4477 3.50001 11 3.50001L18.3386 3.50001C18.8657 3.49999 19.3205 3.49998 19.695 3.53058C20.0904 3.56288 20.4836 3.6342 20.862 3.82699C21.4265 4.11461 21.8854 4.57356 22.173 5.13804C22.3658 5.51642 22.4371 5.90964 22.4694 6.30498C22.5 6.67955 22.5 7.13431 22.5 7.66145V9.032C22.5 9.47065 22.5 9.84914 22.4787 10.1624C22.4562 10.4922 22.4067 10.8221 22.2717 11.1481C21.9672 11.8831 21.3831 12.4672 20.6481 12.7717C20.3221 12.9067 19.9922 12.9562 19.6624 12.9787C19.3491 13 18.9706 13 18.532 13H18.5C17.9477 13 17.5 12.5523 17.5 12C17.5 11.4477 17.9477 11 18.5 11C18.9796 11 19.2893 10.9995 19.5263 10.9833C19.7542 10.9677 19.8411 10.9411 19.8827 10.9239C20.1277 10.8224 20.3224 10.6277 20.4239 10.3827C20.4411 10.3411 20.4677 10.2543 20.4833 10.0263C20.4995 9.78927 20.5 9.47964 20.5 9.00001V7.70001C20.5 7.12346 20.4992 6.75119 20.4761 6.46785C20.4539 6.19618 20.4162 6.09547 20.391 6.04602C20.2951 5.85786 20.1422 5.70488 19.954 5.60901C19.9046 5.58381 19.8038 5.54613 19.5322 5.52394ZM5.46802 11L5.50001 11C6.0523 11 6.50001 11.4477 6.50001 12C6.50001 12.5523 6.0523 13 5.50001 13C5.02039 13 4.71075 13.0006 4.47377 13.0167C4.24577 13.0323 4.15894 13.0589 4.11733 13.0761C3.8723 13.1776 3.67763 13.3723 3.57613 13.6173C3.5589 13.6589 3.53228 13.7458 3.51672 13.9738C3.50055 14.2108 3.50001 14.5204 3.50001 15V16.3C3.50001 16.8766 3.50079 17.2488 3.52394 17.5322C3.54613 17.8038 3.58381 17.9046 3.60901 17.954C3.70488 18.1422 3.85786 18.2951 4.04602 18.391C4.09547 18.4162 4.19618 18.4539 4.46785 18.4761C4.75119 18.4992 5.12346 18.5 5.70001 18.5H13C13.5523 18.5 14 18.9477 14 19.5C14 20.0523 13.5523 20.5 13 20.5H5.66145C5.13431 20.5 4.67955 20.5 4.30498 20.4694C3.90964 20.4371 3.51642 20.3658 3.13804 20.173C2.57355 19.8854 2.11461 19.4265 1.82699 18.862C1.6342 18.4836 1.56288 18.0904 1.53058 17.695C1.49998 17.3205 1.49999 16.8657 1.50001 16.3386L1.50001 14.968C1.5 14.5294 1.49999 14.1509 1.52136 13.8376C1.54387 13.5078 1.59337 13.1779 1.72837 12.852C2.03286 12.1169 2.61688 11.5329 3.35196 11.2284C3.67789 11.0934 4.0078 11.0439 4.33763 11.0214C4.65089 11 5.02937 11 5.46802 11Z" fill="#801ED7"/>
<path fill-rule="evenodd" clip-rule="evenodd" d="M10.2769 8.50001C10.2847 8.50001 10.2924 8.50001 10.3 8.50001H13.7C13.7076 8.50001 13.7153 8.50001 13.7232 8.50001C13.8423 8.49996 13.9845 8.49991 14.1098 8.51015C14.2551 8.52201 14.4631 8.55245 14.681 8.6635C14.9632 8.80731 15.1927 9.03678 15.3365 9.31903C15.4476 9.53697 15.478 9.74496 15.4899 9.89018C15.5001 10.0155 15.5001 10.1578 15.5 10.2769C15.5 10.2847 15.5 10.2924 15.5 10.3V13.7C15.5 13.7076 15.5 13.7153 15.5 13.7232C15.5001 13.8423 15.5001 13.9845 15.4899 14.1098C15.478 14.2551 15.4476 14.4631 15.3365 14.681C15.1927 14.9632 14.9632 15.1927 14.681 15.3365C14.4631 15.4476 14.2551 15.478 14.1098 15.4899C13.9845 15.5001 13.8423 15.5001 13.7232 15.5C13.7153 15.5 13.7076 15.5 13.7 15.5H10.3C10.2924 15.5 10.2847 15.5 10.2769 15.5C10.1578 15.5001 10.0155 15.5001 9.89018 15.4899C9.74496 15.478 9.53697 15.4476 9.31903 15.3365C9.03678 15.1927 8.80731 14.9632 8.6635 14.681C8.55245 14.4631 8.52201 14.2551 8.51015 14.1098C8.49991 13.9845 8.49996 13.8423 8.50001 13.7232C8.50001 13.7153 8.50001 13.7076 8.50001 13.7V10.3C8.50001 10.2924 8.50001 10.2847 8.50001 10.2769C8.49996 10.1578 8.49991 10.0155 8.51015 9.89018C8.52201 9.74496 8.55245 9.53697 8.6635 9.31903C8.80731 9.03678 9.03678 8.80731 9.31903 8.6635C9.53697 8.55245 9.74496 8.52201 9.89018 8.51015C10.0155 8.49991 10.1578 8.49996 10.2769 8.50001Z" fill="#801ED7"/>
<path fill-rule="evenodd" clip-rule="evenodd" d="M17.7769 16C17.7847 16 17.7924 16 17.8 16H21.2C21.2076 16 21.2153 16 21.2232 16C21.3423 16 21.4845 15.9999 21.6098 16.0101C21.7551 16.022 21.9631 16.0525 22.181 16.1635C22.4632 16.3073 22.6927 16.5368 22.8365 16.819C22.9476 17.037 22.978 17.245 22.9899 17.3902C23.0001 17.5155 23.0001 17.6578 23 17.7769C23 17.7847 23 17.7924 23 17.8V21.2C23 21.2076 23 21.2153 23 21.2232C23.0001 21.3423 23.0001 21.4845 22.9899 21.6098C22.978 21.7551 22.9476 21.9631 22.8365 22.181C22.6927 22.4632 22.4632 22.6927 22.181 22.8365C21.9631 22.9476 21.7551 22.978 21.6098 22.9899C21.4845 23.0001 21.3423 23.0001 21.2232 23C21.2153 23 21.2076 23 21.2 23H17.8C17.7924 23 17.7847 23 17.7769 23C17.6578 23.0001 17.5155 23.0001 17.3902 22.9899C17.245 22.978 17.037 22.9476 16.819 22.8365C16.5368 22.6927 16.3073 22.4632 16.1635 22.181C16.0525 21.9631 16.022 21.7551 16.0101 21.6098C15.9999 21.4845 16 21.3423 16 21.2232C16 21.2153 16 21.2076 16 21.2V17.8C16 17.7924 16 17.7847 16 17.7769C16 17.6578 15.9999 17.5155 16.0101 17.3902C16.022 17.245 16.0525 17.037 16.1635 16.819C16.3073 16.5368 16.5368 16.3073 16.819 16.1635C17.037 16.0525 17.245 16.022 17.3902 16.0101C17.5155 15.9999 17.6578 16 17.7769 16Z" fill="#801ED7"/>
<path fill-rule="evenodd" clip-rule="evenodd" d="M2.77687 1.00001C2.78469 1.00001 2.79241 1.00001 2.80001 1.00001H6.20001C6.20762 1.00001 6.21533 1.00001 6.22315 1.00001C6.34227 0.999961 6.48452 0.999906 6.60984 1.01015C6.75506 1.02201 6.96305 1.05245 7.181 1.1635C7.46324 1.30731 7.69271 1.53678 7.83652 1.81903C7.94757 2.03697 7.97801 2.24496 7.98988 2.39018C8.00012 2.5155 8.00006 2.65776 8.00002 2.77687C8.00001 2.78469 8.00001 2.79241 8.00001 2.80001V6.20001C8.00001 6.20762 8.00001 6.21533 8.00002 6.22315C8.00006 6.34227 8.00012 6.48452 7.98988 6.60984C7.97801 6.75506 7.94757 6.96305 7.83652 7.181C7.69271 7.46324 7.46324 7.69271 7.181 7.83652C6.96305 7.94757 6.75506 7.97801 6.60984 7.98988C6.48452 8.00012 6.34227 8.00006 6.22315 8.00002C6.21533 8.00001 6.20762 8.00001 6.20001 8.00001H2.80001C2.79241 8.00001 2.78469 8.00001 2.77687 8.00002C2.65776 8.00006 2.5155 8.00012 2.39018 7.98988C2.24496 7.97801 2.03697 7.94757 1.81903 7.83652C1.53678 7.69271 1.30731 7.46324 1.1635 7.181C1.05245 6.96305 1.02201 6.75506 1.01015 6.60984C0.999906 6.48452 0.999961 6.34227 1.00001 6.22315C1.00001 6.21533 1.00001 6.20762 1.00001 6.20001V2.80001C1.00001 2.79241 1.00001 2.78469 1.00001 2.77687C0.999961 2.65776 0.999906 2.5155 1.01015 2.39018C1.02201 2.24496 1.05245 2.03697 1.1635 1.81903C1.30731 1.53678 1.53678 1.30731 1.81903 1.1635C2.03697 1.05245 2.24496 1.02201 2.39018 1.01015C2.5155 0.999906 2.65776 0.999961 2.77687 1.00001Z" fill="#801ED7"/>
</svg>
